!!!COM:	Du Fay, Guillaume
!!!CDT:	~1397/08/05/-1474/11/27
!!!OTL:	Nuper rosarum flores / Terribilis est locus iste
!!!AGN:	Motet
!!!SCT:	Duf2054
!!!SCA:	Duf2054
!!!voices:	4
**kern	**text	**kern	**text	**kern	**text	**kern	**text
*staff4	*staff4	*staff3	*staff3	*staff2	*staff2	*staff1	*staff1
*Ivox	*	*Ivox	*	*Ivox	*	*Ivox	*
*I"Tenor1	*	*I"Tenor2	*	*I"Contratenor	*	*I"Discantus	*
*I'T1	*	*I'T2	*	*I'Ct	*	*I'D	*
*clefF4	*	*clefGv2	*	*clefGv2	*	*clefG2	*
*k[b-]	*	*k[b-]	*	*k[b-]	*	*k[]	*
*M3/1	*	*M3/1	*	*M3/1	*	*M3/1	*
*met(O)	*	*met(O)	*	*met(O)	*	*met(O)	*
=1-	=1-	=1-	=1-	=1-	=1-	=1-	=1-
!LO:TX:X=-40:Z=8:t=In each tenor voice, a single notated line is realized under four successive mensuration signs.	!	!LO:TX:Z=5:t=T2-->T1&colon; quasi canon throughout at the lower fifth	!	!	!	!	!
0.r	.	0.r	.	[0.G	Nu-	0.g	Nu-
=2	=2	=2	=2	=2	=2	=2	=2
0.r	.	0.r	.	0.G]	.	2b\	.
.	.	.	.	.	.	2cc\	.
.	.	.	.	.	.	1.dd	.
.	.	.	.	.	.	2cc\	.
=3	=3	=3	=3	=3	=3	=3	=3
0.r	.	0.r	.	0c	-per	2a/	.
.	.	.	.	.	.	2g/	.
.	.	.	.	.	.	1g	-per
.	.	.	.	1c	ro-	1cc	ro-
=4	=4	=4	=4	=4	=4	=4	=4
0.r	.	0.r	.	1.d	-sa-	1b	-sa-
.	.	.	.	.	.	1a	.
.	.	.	.	2c\	.	.	.
.	.	.	.	2A/	.	2cc\	.
.	.	.	.	2G/	.	2b\	.
=5	=5	=5	=5	=5	=5	=5	=5
0.r	.	0.r	.	1B-	-rum	1g	-rum
.	.	.	.	0A	flo-	2g/	flo-
.	.	.	.	.	.	1f#i	.
.	.	.	.	.	.	2e/	.
=6	=6	=6	=6	=6	=6	=6	=6
0.r	.	0.r	.	0.G	-res	0g	-res
.	.	.	.	.	.	1r	.
=7	=7	=7	=7	=7	=7	=7	=7
0.r	.	0.r	.	1r	.	1.e	Ex
.	.	.	.	1G	Ex	.	.
.	.	.	.	.	.	2d/	.
.	.	.	.	1A	do-	1f	do-
=8	=8	=8	=8	=8	=8	=8	=8
0.r	.	0.r	.	1G	-no	0g	-no
.	.	.	.	0c	pon-	.	.
.	.	.	.	.	.	1cc	pon-
=9	=9	=9	=9	=9	=9	=9	=9
0.r	.	0.r	.	1e	-ti-	0cc	-ti-
.	.	.	.	2f\	.	.	.
.	.	.	.	2e\	.	.	.
.	.	.	.	1d	-fic-	2b\	-fic-
.	.	.	.	.	.	2a/	.
=10	=10	=10	=10	=10	=10	=10	=10
0.r	.	0.r	.	1c	-is	0cc	-is
.	.	.	.	1r	.	.	.
.	.	.	.	[1e	Hi-	1b	Hi-
=11	=11	=11	=11	=11	=11	=11	=11
0.r	.	0.r	.	1e]	.	1cc	-e-
.	.	.	.	1d	-e-	0dd	-me
.	.	.	.	[1f	-me	.	.
=12	=12	=12	=12	=12	=12	=12	=12
0.r	.	0.r	.	2f\]	.	1dd	li-
.	.	.	.	2e\	.	.	.
.	.	.	.	1c	li-	1.ee	-cet
.	.	.	.	1g	-cet	.	.
.	.	.	.	.	.	2dd\	.
=13	=13	=13	=13	=13	=13	=13	=13
0.r	.	0.r	.	1f	hor-	1.dd	hor-
.	.	.	.	1g	.	.	.
.	.	.	.	.	.	2dd\	-ri-
.	.	.	.	1e	-ri-	2cc#i\	.
.	.	.	.	.	.	2b\	.
=14	=14	=14	=14	=14	=14	=14	=14
0.r	.	0.r	.	0d	-da	0.dd	-da
.	.	.	.	1r	.	.	.
=15	=15	=15	=15	=15	=15	=15	=15
0.r	.	0.r	.	1g	Ti-	2r	.
.	.	.	.	.	.	2b\	Ti-
.	.	.	.	2e\	.	2cc\	.
.	.	.	.	2f\	.	1dd	.
.	.	.	.	1g	.	.	.
.	.	.	.	.	.	2g/	.
=16	=16	=16	=16	=16	=16	=16	=16
0.r	.	0.r	.	2c\	.	2a/	.
.	.	.	.	2d\	.	2b\	.
.	.	.	.	2e\	.	1g	.
.	.	.	.	1c	.	.	.
.	.	.	.	.	.	2e/	.
.	.	.	.	2A/	.	2f/	.
=17	=17	=17	=17	=17	=17	=17	=17
0.r	.	0.r	.	2B-\	.	2.g/	.
.	.	.	.	1c	.	.	.
.	.	.	.	.	.	4f/	.
.	.	.	.	.	.	2e/	.
.	.	.	.	2B-\	.	1d	-bi,
.	.	.	.	1G	-bi,	.	.
.	.	.	.	.	.	2g/	vir-
=18	=18	=18	=18	=18	=18	=18	=18
0.r	.	0.r	.	1d	vir-	2f/	.
.	.	.	.	.	.	2.a/	-go
.	.	.	.	1c	-go	.	.
.	.	.	.	.	.	4b\	.
.	.	.	.	.	.	2.cc\	.
.	.	.	.	1f	.	.	.
.	.	.	.	.	.	4b\	.
.	.	.	.	.	.	4a/	.
.	.	.	.	.	.	4g/	.
=19	=19	=19	=19	=19	=19	=19	=19
0.r	.	0.r	.	2e\	ce-	2g/	.
.	.	.	.	1d	.	2dd\	ce-
.	.	.	.	.	.	4cc\	.
.	.	.	.	.	.	2b-i\	.
.	.	.	.	2c\	.	.	.
.	.	.	.	.	.	4a/	.
.	.	.	.	1B-	-li-	4b-i\	-li-
.	.	.	.	.	.	2g/	.
.	.	.	.	.	.	4f/	.
=20	=20	=20	=20	=20	=20	=20	=20
0.r	.	0.r	.	0A	-ca,	1a	-ca,
.	.	.	.	.	.	1r	.
.	.	.	.	1r	.	1r	.
=21	=21	=21	=21	=21	=21	=21	=21
0.r	.	0.r	.	1c	Pi-	1a	Pi-
.	.	.	.	1.d	.	1.b-	.
.	.	.	.	2c\	.	2a/	.
=22	=22	=22	=22	=22	=22	=22	=22
0.r	.	0.r	.	2d\	.	1f	-e
.	.	.	.	2c\	.	.	.
.	.	.	.	0A	-e	2r	.
.	.	.	.	.	.	2a/	et
.	.	.	.	.	.	2b\	.
.	.	.	.	.	.	[2cc\	san-
=23	=23	=23	=23	=23	=23	=23	=23
0.r	.	0.r	.	1F	et	2cc\]	.
.	.	.	.	.	.	2b\	.
.	.	.	.	0c	san-	2a/	.
.	.	.	.	.	.	2g/	.
.	.	.	.	.	.	1e	-cte
=24	=24	=24	=24	=24	=24	=24	=24
0.r	.	0.r	.	1B-	-cte	2d/	de-
.	.	.	.	.	.	1g	.
.	.	.	.	2c\	de-	.	.
.	.	.	.	1d	.	2f/	.
.	.	.	.	.	.	1b-i	.
.	.	.	.	2G/	.	.	.
=25	=25	=25	=25	=25	=25	=25	=25
0.r	.	0.r	.	2F/	.	2a/	.
.	.	.	.	1G	.	2dd\	.
.	.	.	.	.	.	2b-i\	.
.	.	.	.	2B-\	.	1g	.
.	.	.	.	1A	-di-	.	.
.	.	.	.	.	.	2f#i/	-di-
=26	=26	=26	=26	=26	=26	=26	=26
0.r	.	0.r	.	0.G	-tum	1g	-tum
.	.	.	.	.	.	1r	.
.	.	.	.	.	.	2d/	.
.	.	.	.	.	.	2e/	.
=27	=27	=27	=27	=27	=27	=27	=27
0.r	.	0.r	.	0B-	.	2d/	.
.	.	.	.	.	.	2.g/	.
.	.	.	.	.	.	4f/	.
.	.	.	.	.	.	2d/	.
.	.	.	.	1A	.	2c/	.
.	.	.	.	.	.	4d/	.
.	.	.	.	.	.	4e/	.
=28	=28	=28	=28	=28	=28	=28	=28
0.r	.	0.r	.	1F	.	2f/	.
.	.	.	.	.	.	2e/	.
.	.	.	.	0G	.	2d/	.
.	.	.	.	.	.	2c/	.
.	.	.	.	.	.	2.B-i/	.
.	.	.	.	.	.	4A/	.
=29	=29	=29	=29	=29	=29	=29	=29
0.r	.	[0.d	Ter-	0.D\ 0.F\	.	1A	.
.	.	.	.	.	.	1r	.
.	.	.	.	.	.	1a	Gran-
=30	=30	=30	=30	=30	=30	=30	=30
0.G	Ter-	0.d_	.	0.r	.	1g	-dis
.	.	.	.	.	.	1.b-	tem-
.	.	.	.	.	.	2a/	.
=31	=31	=31	=31	=31	=31	=31	=31
0.r	.	0.d_	.	0D\ 0A\	Gran-	0.f#i	-plum
.	.	.	.	1D\ 1A\	-dis	.	.
=32	=32	=32	=32	=32	=32	=32	=32
0.r	.	0.d]	.	1D\ 1A\	tem-	1.f#i	ma-
.	.	.	.	0D\ 0A\	-plum	.	.
.	.	.	.	.	.	2g/	.
.	.	.	.	.	.	2f#i/	-chi-
.	.	.	.	.	.	2e/	.
=33	=33	=33	=33	=33	=33	=33	=33
0.G	-ri-	0.r	.	0B-\ 0d\	ma-	1g	-ne
.	.	.	.	.	.	1r	.
.	.	.	.	1B-\ 1d\	-chi-	1r	.
=34	=34	=34	=34	=34	=34	=34	=34
0.F	-bi-	0.r	.	0A\ 0c\	-ne	1a	Con-
.	.	.	.	.	.	1a	-de-
.	.	.	.	1A\ 1c\	Con-	[1a	-co-
=35	=35	=35	=35	=35	=35	=35	=35
[0.D	-lis	[0.d	-ri-	0F\ 0A\	-de-	1a]	.
.	.	.	.	.	.	0f	-ra-
.	.	.	.	1A	-co-	.	.
=36	=36	=36	=36	=36	=36	=36	=36
0.D]	.	0.d]	.	1B-	-ra-	1d	-runt
.	.	.	.	0A	-runt	2f/	per-
.	.	.	.	.	.	2g/	.
.	.	.	.	.	.	[1a	.
=37	=37	=37	=37	=37	=37	=37	=37
0.r	.	0.c	-bi-	0A	per-	2a/]	.
.	.	.	.	.	.	2g/	.
.	.	.	.	.	.	2a/	-pe-
.	.	.	.	.	.	2f/	.
.	.	.	.	1A	-pe-	1e	-tim.
=38	=38	=38	=38	=38	=38	=38	=38
0.D	est	0.A	-lis	0d	-tim.	2r	.
.	.	.	.	.	.	1a	Ho-
.	.	.	.	.	.	2g/	-di-
.	.	.	.	1r	.	[1f	-e
=39	=39	=39	=39	=39	=39	=39	=39
[0.F	.	0.r	.	1c	Ho-	2f/]	.
.	.	.	.	.	.	2a/	vi-
.	.	.	.	2c\	-di-	2cc\	-ca-
.	.	.	.	2f\	-e	2b\	-ri-
.	.	.	.	2f\	vi-	1a	-us
.	.	.	.	2e\	-ca-	.	.
=40	=40	=40	=40	=40	=40	=40	=40
0.F]	.	0.r	.	2d\	-ri-	2f/	Je-
.	.	.	.	2c\	-us	2f/	-su
.	.	.	.	0A	Je-	2.f/	Chri-
.	.	.	.	.	.	4e/	.
.	.	.	.	.	.	1c	-sti
=41	=41	=41	=41	=41	=41	=41	=41
0.r	.	0.A	est	1F	-su	2r	.
.	.	.	.	.	.	2c/	et
.	.	.	.	1F	Chri-	2d/	.
.	.	.	.	.	.	2c/	.
.	.	.	.	2F/	-sti	1f	Pe-
.	.	.	.	2G/	.	.	.
=42	=42	=42	=42	=42	=42	=42	=42
0.r	.	0.c	.	1A	.	2e/	.
.	.	.	.	.	.	2.a/	.
.	.	.	.	1A	et	.	.
.	.	.	.	.	.	4b\	.
.	.	.	.	.	.	2.cc\	.
.	.	.	.	1A	Pe-	.	.
.	.	.	.	.	.	4b\	.
.	.	.	.	.	.	4a/	.
.	.	.	.	.	.	4g/	.
=43	=43	=43	=43	=43	=43	=43	=43
0.r	.	[0.d	.	0.G	-tri	2.b\	.
.	.	.	.	.	.	4g/	.
.	.	.	.	.	.	1g	-tri
.	.	.	.	.	.	1r	.
=44	=44	=44	=44	=44	=44	=44	=44
[0.G	.	0.d_	.	0.r	.	0g	Suc-
.	.	.	.	.	.	2g/	-ces-
.	.	.	.	.	.	2f/	.
=45	=45	=45	=45	=45	=45	=45	=45
0.G]	.	0.d]	.	0g	Suc-	1d	-sor
.	.	.	.	.	.	1.b-i	.
.	.	.	.	2g\	-ces-	.	.
.	.	.	.	2f\	.	2a/	.
=46	=46	=46	=46	=46	=46	=46	=46
0.B-	lo-	0.r	.	0d	-sor	2g/	.
.	.	.	.	.	.	2f/	.
.	.	.	.	.	.	1f	.
.	.	.	.	1d	Eu-	1b-	Eu-
=47	=47	=47	=47	=47	=47	=47	=47
0.r	.	0.f	lo-	0B-\ 0d\	-ge-	0b-i	-ge-
.	.	.	.	1B-\ 1d\	-ni-	1b-i	-ni-
=48	=48	=48	=48	=48	=48	=48	=48
0.r	.	0.f	-cus	0.F\ 0.c\	-us	1a	-us
.	.	.	.	.	.	1r	.
.	.	.	.	.	.	1r	.
=49	=49	=49	=49	=49	=49	=49	=49
[0.B-	-cus	0.r	.	1G\ 1g\	Hoc	1d	Hoc
.	.	.	.	1G\ 1g\	i-	1d	i-
.	.	.	.	2G\ 2g\	-dem	1d	-dem
.	.	.	.	2G\ 2g\	am-	.	.
=50	=50	=50	=50	=50	=50	=50	=50
0.B-]	.	0.f	i-	2d\	-plis-	2r	.
.	.	.	.	2d\	-si-	1dd	am-
.	.	.	.	1d	-mum	.	.
.	.	.	.	.	.	1dd	-plis-
.	.	.	.	2d\	Sa-	.	.
.	.	.	.	2d\	-cris	2dd\	-si-
=51	=51	=51	=51	=51	=51	=51	=51
0.r	.	0.g	.	2c\	tem-	1ee	-mum
.	.	.	.	2c\	-plum	.	.
.	.	.	.	2G\ 2d\	ma-	0dd	.
.	.	.	.	2G\ 2d\	-ni-	.	.
.	.	.	.	1G\ 1d\	-bus	.	.
=52	=52	=52	=52	=52	=52	=52	=52
0.B-	i-	0.f	.	1r	.	2dd\	Sa-
.	.	.	.	.	.	2dd\	-cris
.	.	.	.	0d	San-	2b-\	tem-
.	.	.	.	.	.	2b-\	-plum
.	.	.	.	.	.	2b-\	ma-
.	.	.	.	.	.	2b-\	-ni-
=53	=53	=53	=53	=53	=53	=53	=53
0.c	.	0.e	.	1c	-ctis-	0a	-bus
.	.	.	.	0A	-que	.	.
.	.	.	.	.	.	2.cc\	San-
.	.	.	.	.	.	4b-i\	.
=54	=54	=54	=54	=54	=54	=54	=54
0.B-	.	0.d	.	1r	.	2g/	-ctis-
.	.	.	.	.	.	2f/	.
.	.	.	.	0G	li-	2b-\	.
.	.	.	.	.	.	2a/	.
.	.	.	.	.	.	1g	-que
=55	=55	=55	=55	=55	=55	=55	=55
0.A	-ste:	0.r	.	0D\ 0d\	-quo-	2r	.
.	.	.	.	.	.	2f#i/	li-
.	.	.	.	.	.	2f#i/	-quo-
.	.	.	.	.	.	2g/	.
.	.	.	.	1D\ 1d\	-ri-	2.f#i/	-ri-
.	.	.	.	.	.	4e/	.
=56	=56	=56	=56	=56	=56	=56	=56
0.G	.	0.r	.	0.d	-bus	0g	-bus
.	.	.	.	.	.	1r	.
=57	=57	=57	=57	=57	=57	=57	=57
*M2/1	*	*M2/1	*	*M2/1	*	*M2/1	*
*met(C)	*	*met(C)	*	*met(C|)	*	*met(C|)	*
*rscale:1/2	*	*rscale:1/2	*	*	*	*	*
!!primary-mensuration: met(C|)
0r	.	0r	.	[0g	Con-	0b	Con-
=58.	=58	=58.	=58	=58.	=58	=58.	=58
0r	.	0r	.	0g]	.	1cc	-se-
.	.	.	.	.	.	[1dd	-cra-
=59	=59	=59	=59	=59	=59	=59	=59
0r	.	0r	.	[0f	-se-	1dd]	.
.	.	.	.	.	.	1cc	.
=60.	=60	=60.	=60	=60.	=60	=60.	=60
0r	.	0r	.	0f]	.	1.a	.
.	.	.	.	.	.	2g/	.
=61	=61	=61	=61	=61	=61	=61	=61
0r	.	0r	.	[0g	-cra-	0b	-re
=62.	=62	=62.	=62	=62.	=62	=62.	=62
0r	.	0r	.	0g]	.	1r	.
.	.	.	.	.	.	[1g	di-
=63	=63	=63	=63	=63	=63	=63	=63
0r	.	0r	.	0c	-re	1g]	.
.	.	.	.	.	.	1a	.
=64.	=64	=64.	=64	=64.	=64	=64.	=64
0r	.	0r	.	1e	di-	1g	.
.	.	.	.	1f	.	1cc	.
=65	=65	=65	=65	=65	=65	=65	=65
0r	.	0r	.	0g	-gna-	1b	-gna-
.	.	.	.	.	.	[1g	.
=66.	=66	=66.	=66	=66.	=66	=66.	=66
0r	.	0r	.	1e	-tus	1g]	.
.	.	.	.	[1c	.	1g	-tus
=67	=67	=67	=67	=67	=67	=67	=67
0r	.	0r	.	1c]	.	1a	.
.	.	.	.	1G	.	1b	.
=68.	=68	=68.	=68	=68.	=68	=68.	=68
0r	.	0r	.	1A	.	1cc	.
.	.	.	.	1B-	.	[1dd	.
=69	=69	=69	=69	=69	=69	=69	=69
0r	.	0r	.	1c	.	2dd\]	.
.	.	.	.	.	.	2cc\	.
.	.	.	.	1e	.	[1cc	.
=70.	=70	=70.	=70	=70.	=70	=70.	=70
0r	.	0r	.	0d	.	1cc]	.
.	.	.	.	.	.	1b	.
=71	=71	=71	=71	=71	=71	=71	=71
0r	.	0r	.	[0c	est.	0cc	est.
=72.	=72	=72.	=72	=72.	=72	=72.	=72
0r	.	0r	.	0c]	.	0r	.
=73	=73	=73	=73	=73	=73	=73	=73
0r	.	0r	.	0r	.	1cc	I-
.	.	.	.	.	.	1b	.
=74.	=74	=74.	=74	=74.	=74	=74.	=74
0r	.	0r	.	0c	I-	1g	.
.	.	.	.	.	.	[1a	.
=75	=75	=75	=75	=75	=75	=75	=75
0r	.	0r	.	0A	-gi-	2a/]	.
.	.	.	.	.	.	2g/	.
.	.	.	.	.	.	1e	.
=76.	=76	=76.	=76	=76.	=76	=76.	=76
0r	.	0r	.	0B-	-tur,	2g/	-gi-
.	.	.	.	.	.	2f/	.
.	.	.	.	.	.	2.d/	.
.	.	.	.	.	.	4c/	.
=77	=77	=77	=77	=77	=77	=77	=77
0r	.	0r	.	0c	.	0c	-tur,
=78.	=78	=78.	=78	=78.	=78	=78.	=78
0r	.	0r	.	[0e	al-	1r	.
.	.	.	.	.	.	[1g	al-
=79	=79	=79	=79	=79	=79	=79	=79
0r	.	0r	.	1e]	.	1g]	.
.	.	.	.	1d	.	[1a	-ma
=80.	=80	=80.	=80	=80.	=80	=80.	=80
0r	.	0r	.	1f	.	1a]	.
.	.	.	.	1e	.	[1g	.
=81	=81	=81	=81	=81	=81	=81	=81
0r	.	0r	.	0c	-ma	1g]	.
.	.	.	.	.	.	1cc	pa-
=82.	=82	=82.	=82	=82.	=82	=82.	=82
0r	.	0r	.	1G	pa-	1b	.
.	.	.	.	1A	.	1cc	.
=83	=83	=83	=83	=83	=83	=83	=83
0r	.	0r	.	1G	.	1dd	.
.	.	.	.	1B-	.	[1g	.
=84.	=84	=84.	=84	=84.	=84	=84.	=84
0r	.	0r	.	0A	.	2g/]	.
.	.	.	.	.	.	2f#i/	.
.	.	.	.	.	.	2f#i/	.
.	.	.	.	.	.	2e/	.
=85	=85	=85	=85	=85	=85	=85	=85
0r	.	0r	.	0G	-rens	[0g	-rens
=86.	=86	=86.	=86	=86.	=86	=86.	=86
0r	.	0r	.	0r	.	0g]	.
=87	=87	=87	=87	=87	=87	=87	=87
0r	.	0r	.	[0c	Na-	0r	.
=88.	=88	=88.	=88	=88.	=88	=88.	=88
0r	.	0r	.	0c_	.	0g	Na-
=89	=89	=89	=89	=89	=89	=89	=89
0r	.	0r	.	0c_	.	[0a	.
=90.	=90	=90.	=90	=90.	=90	=90.	=90
0r	.	0r	.	0c]	.	1a]	.
.	.	.	.	.	.	1g	.
=91	=91	=91	=91	=91	=91	=91	=91
0r	.	0r	.	[0G	-ti	1b	-ti
.	.	.	.	.	.	1cc	.
=92.	=92	=92.	=92	=92.	=92	=92.	=92
0r	.	0r	.	0G]	.	[0dd	.
=93	=93	=93	=93	=93	=93	=93	=93
0r	.	0r	.	[0F	tu-	1dd]	.
.	.	.	.	.	.	1cc	tu-
=94.	=94	=94.	=94	=94.	=94	=94.	=94
0r	.	0r	.	0F]	.	1.a	.
.	.	.	.	.	.	2g/	.
=95	=95	=95	=95	=95	=95	=95	=95
0r	.	0r	.	0G	-i	0g	-i
=96.	=96	=96.	=96	=96.	=96	=96.	=96
0r	.	0r	.	0A	et	1f	et
.	.	.	.	.	.	[1e	.
=97	=97	=97	=97	=97	=97	=97	=97
0r	.	0r	.	1G	fi-	2e/]	.
.	.	.	.	.	.	2d/	.
.	.	.	.	1F	.	[1d	fi-
=98.	=98	=98.	=98	=98.	=98	=98.	=98
0r	.	0r	.	0E	-li-	1d]	.
.	.	.	.	.	.	1c#i	-li-
=99	=99	=99	=99	=99	=99	=99	=99
0r	.	0r	.	[0D	-a	[0d	-a
=100.	=100	=100.	=100	=100.	=100	=100.	=100
0r	.	0r	.	1D]	.	0d]	.
.	.	.	.	1r	.	.	.
=101	=101	=101	=101	=101	=101	=101	=101
0r	.	0r	.	1.d	Vir-	1r	.
.	.	.	.	.	.	[1a	Vir-
.	.	.	.	2c\	.	.	.
=102.	=102	=102.	=102	=102.	=102	=102.	=102
0r	.	0r	.	1d	.	1a]	.
.	.	.	.	1e	.	1g	.
=103	=103	=103	=103	=103	=103	=103	=103
0r	.	0r	.	1f	.	1a	.
.	.	.	.	[1g	.	[1b-i	.
=104.	=104	=104.	=104	=104.	=104	=104.	=104
0r	.	0r	.	2g\]	.	1b-]	.
.	.	.	.	2f\	.	.	.
.	.	.	.	1d	.	1a	.
=105	=105	=105	=105	=105	=105	=105	=105
0r	.	0r	.	0e-	.	1.g	-go
.	.	.	.	.	.	2f/	.
=106.	=106	=106.	=106	=106.	=106	=106.	=106
0r	.	0r	.	1.d	-go	0f	.
.	.	.	.	2c\	.	.	.
=107	=107	=107	=107	=107	=107	=107	=107
0r	.	0r	.	0A	.	1r	.
.	.	.	.	.	.	1cc	de-
=108.	=108	=108.	=108	=108.	=108	=108.	=108
0r	.	0r	.	1G	de-	1b-i	.
.	.	.	.	1F	.	[1a	.
=109	=109	=109	=109	=109	=109	=109	=109
0r	.	0r	.	1G	.	2a/]	.
.	.	.	.	.	.	2g/	.
.	.	.	.	1B-	.	1g	.
=110.	=110	=110.	=110	=110.	=110	=110.	=110
0r	.	0r	.	0A	-us	1e	-us
.	.	.	.	.	.	1f	.
=111	=111	=111	=111	=111	=111	=111	=111
0r	.	0r	.	0G	vir-	1g	vir-
.	.	.	.	.	.	1b-	.
=112.	=112	=112.	=112	=112.	=112	=112.	=112
0r	.	0r	.	0F	-gi-	0a	-gi-
=113	=113	=113	=113	=113	=113	=113	=113
0r	.	[0d	-Ter-	[0G	-num,	0g	-num,
=114.	=114	=114.	=114	=114.	=114	=114.	=114
0r	.	0d_	.	0G]	.	1r	.
.	.	.	.	.	.	1dd	Tu-
=115	=115	=115	=115	=115	=115	=115	=115
[0G	Ter-	0d_	.	0r	.	1cc	.
.	.	.	.	.	.	[1b-	-us
=116.	=116	=116.	=116	=116.	=116	=116.	=116
0G]	.	0d_	.	0r	.	2b-\]	.
.	.	.	.	.	.	2a/	.
.	.	.	.	.	.	1g	.
=117	=117	=117	=117	=117	=117	=117	=117
0r	.	0d_	.	0D\ 0A	Tu-	0f#i	te
=118.	=118	=118.	=118	=118.	=118	=118.	=118
0r	.	0d_	.	0D\ 0A	-us	1r	.
.	.	.	.	.	.	[1f#i	Flo-
=119	=119	=119	=119	=119	=119	=119	=119
0r	.	0d_	.	[0D\ [0A	te	1f#]	.
.	.	.	.	.	.	[1f#i	-ren-
=120.	=120	=120.	=120	=120.	=120	=120.	=120
0r	.	0d]	.	0D]\ 0A]	.	1f#]	.
.	.	.	.	.	.	1f#i	-ti-
=121	=121	=121	=121	=121	=121	=121	=121
[0G	-ri-	0r	.	[0B-\ [0d	Flo-	0g	-e
=122.	=122	=122.	=122	=122.	=122	=122.	=122
0G]	.	0r	.	0B-]\ 0d]	.	0r	.
=123	=123	=123	=123	=123	=123	=123	=123
[0F	-bi-	0r	.	0A\ 0c	-ren-	1.a	De-
.	.	.	.	.	.	2g/	.
=124.	=124	=124.	=124	=124.	=124	=124.	=124
0F]	.	0r	.	0A\ 0c	-ti-	2a/	.
.	.	.	.	.	.	2bni\	.
.	.	.	.	.	.	1cc	.
=125	=125	=125	=125	=125	=125	=125	=125
[0D	-lis	[0d	-ri-	0F\ 0A	-e	2dd\	.
.	.	.	.	.	.	2cc\	.
.	.	.	.	.	.	[1a	.
=126.	=126	=126.	=126	=126.	=126	=126.	=126
0D_	.	0d_	.	0F\ 0A	De-	2a/]	.
.	.	.	.	.	.	2f/	.
.	.	.	.	.	.	2g/	.
.	.	.	.	.	.	2f/	.
=127	=127	=127	=127	=127	=127	=127	=127
0D_	.	0d_	.	0B-	.	1d	.
.	.	.	.	.	.	[1f	.
=128.	=128	=128.	=128	=128.	=128	=128.	=128
0D]	.	0d]	.	[0A	-vo-	2f/]	.
.	.	.	.	.	.	2g/	.
.	.	.	.	.	.	[1a	-vo-
=129	=129	=129	=129	=129	=129	=129	=129
0r	.	[0c	-bi-	0A]	.	2a/]	.
.	.	.	.	.	.	2g/	.
.	.	.	.	.	.	2f/	.
.	.	.	.	.	.	2e/	.
=130.	=130	=130.	=130	=130.	=130	=130.	=130
0r	.	0c]	.	0A	-tus	0e	-tus
=131	=131	=131	=131	=131	=131	=131	=131
[0D	est	[0A	-lis	0d	o-	1r	.
.	.	.	.	.	.	[1a	o-
=132.	=132	=132.	=132	=132.	=132	=132.	=132
0D]	.	0A]	.	0d	-rat	1a]	.
.	.	.	.	.	.	[1f	-rat
=133	=133	=133	=133	=133	=133	=133	=133
[0F	.	0r	.	0c	po-	1f]	.
.	.	.	.	.	.	[1cc	po-
=134.	=134	=134.	=134	=134.	=134	=134.	=134
0F_	.	0r	.	1f	.	1cc]	.
.	.	.	.	1e	.	1cc	-pu-
=135	=135	=135	=135	=135	=135	=135	=135
0F_	.	0r	.	1.d	-pu-	0a	-lus
.	.	.	.	2c\	.	.	.
=136.	=136	=136.	=136	=136.	=136	=136.	=136
0F]	.	0r	.	0c	-lus	1r	.
.	.	.	.	.	.	1f	.
=137	=137	=137	=137	=137	=137	=137	=137
0r	.	[0A	est	1r	.	1e	.
.	.	.	.	[1F	.	1c	.
=138.	=138	=138.	=138	=138.	=138	=138.	=138
0r	.	0A]	.	1F]	.	1.f	.
.	.	.	.	1G	.	.	.
.	.	.	.	.	.	2e/	.
=139	=139	=139	=139	=139	=139	=139	=139
0r	.	[0c	.	[0A	.	1e	.
.	.	.	.	.	.	[1a	.
=140.	=140	=140.	=140	=140.	=140	=140.	=140
0r	.	0c]	.	0A]	.	2a/]	.
.	.	.	.	.	.	2b\	.
.	.	.	.	.	.	2cc\	.
.	.	.	.	.	.	2a/	.
=141	=141	=141	=141	=141	=141	=141	=141
0r	.	[0d	.	[0G	.	1b	.
.	.	.	.	.	.	1g	.
=142.	=142	=142.	=142	=142.	=142	=142.	=142
0r	.	0d_	.	0G]	.	1r	.
.	.	.	.	.	.	1dd	Ut
=143	=143	=143	=143	=143	=143	=143	=143
[0G	.	0d_	.	0r	.	1b	.
.	.	.	.	.	.	[1g	.
=144.	=144	=144.	=144	=144.	=144	=144.	=144
0G_	.	0d_	.	0r	.	2g/]	.
.	.	.	.	.	.	2f/	.
.	.	.	.	.	.	2e/	.
.	.	.	.	.	.	2d/	.
=145	=145	=145	=145	=145	=145	=145	=145
0G_	.	0d_	.	[0g	Ut	0d	qui
=146.	=146	=146.	=146	=146.	=146	=146.	=146
0G]	.	0d]	.	1g]	.	1.b-	men-
.	.	.	.	1f	.	.	.
.	.	.	.	.	.	2a/	.
=147	=147	=147	=147	=147	=147	=147	=147
[0B-	lo-	0r	.	[0d	qui	1g	-te
.	.	.	.	.	.	1f	.
=148.	=148	=148.	=148	=148.	=148	=148.	=148
0B-]	.	0r	.	0d]	.	0b-i	et
=149	=149	=149	=149	=149	=149	=149	=149
0r	.	[0f	lo-	[0D\ [0d	men-	0a	cor-
=150.	=150	=150.	=150	=150.	=150	=150.	=150
0r	.	0f]	.	0D]\ 0d]	.	0a	-po-
=151	=151	=151	=151	=151	=151	=151	=151
0r	.	[0f	-cus	[0D\ [0A	-te	[0d\ [0a	-re
=152.	=152	=152.	=152	=152.	=152	=152.	=152
0r	.	0f]	.	0D]\ 0A]	.	0d]\ 0a]	.
=153	=153	=153	=153	=153	=153	=153	=153
[0B-	-cus	0r	.	0G	et	0dd	Mun-
=154.	=154	=154.	=154	=154.	=154	=154.	=154
0B-_	.	0r	.	0G	cor-	0dd	-do
=155	=155	=155	=155	=155	=155	=155	=155
0B-_	.	[0f	i-	0d	-po-	0r	.
=156.	=156	=156.	=156	=156.	=156	=156.	=156
0B-]	.	0f]	.	0d	-re	0dd	quic-
=157	=157	=157	=157	=157	=157	=157	=157
0r	.	[0g	.	1.c	Mun-	0ee	.
.	.	.	.	2B-\	.	.	.
=158.	=158	=158.	=158	=158.	=158	=158.	=158
0r	.	0g]	.	0G	-do	[0dd	.
=159	=159	=159	=159	=159	=159	=159	=159
[0B-	i-	[0f	.	0r	.	1dd]	.
.	.	.	.	.	.	1cc	.
=160.	=160	=160.	=160	=160.	=160	=160.	=160
0B-]	.	0f]	.	0d	quic-	0b-i	.
=161	=161	=161	=161	=161	=161	=161	=161
[0c	.	[0e	-ste:	0c	.	0a	-quam
=162.	=162	=162.	=162	=162.	=162	=162.	=162
0c]	.	0e]	.	0A	-quam	1r	.
.	.	.	.	.	.	1a	ex-
=163	=163	=163	=163	=163	=163	=163	=163
[0B-	.	[0d	.	0r	.	1b-i	.
.	.	.	.	.	.	[1g	.
=164.	=164	=164.	=164	=164.	=164	=164.	=164
0B-]	.	0d]	.	0G	ex-	1g]	.
.	.	.	.	.	.	1g	-o-
=165	=165	=165	=165	=165	=165	=165	=165
[0A	-ste:	0r	.	0D\ 0d	-o-	1a	.
.	.	.	.	.	.	[1f#i	-ra-
=166.	=166	=166.	=166	=166.	=166	=166.	=166
0A]	.	0r	.	0D\ 0d	-ra-	1f#]	.
.	.	.	.	.	.	1e	.
=167	=167	=167	=167	=167	=167	=167	=167
[0G	.	0r	.	[0d	-rit,	0g	-rit,
=168.	=168	=168.	=168	=168.	=168	=168.	=168
0G]	.	0r	.	0d]	.	0r	.
=169	=169	=169	=169	=169	=169	=169	=169
*M2/1	*	*M2/1	*	*	*	*	*
*met(C|)	*	*met(C|)	*	*	*	*	*
*rscale:1	*	*rscale:1	*	*	*	*	*
0r	.	0r	.	[0d	O-	0a	O-
=170.	=170	=170.	=170	=170.	=170	=170.	=170
0r	.	0r	.	1d]	.	1b	.
.	.	.	.	1e	.	1g	.
=171	=171	=171	=171	=171	=171	=171	=171
0r	.	0r	.	1c	.	0a	.
.	.	.	.	[1d	.	.	.
=172.	=172	=172.	=172	=172.	=172	=172.	=172
0r	.	0r	.	1d]	.	1f	.
.	.	.	.	1B-	.	[1g	.
=173	=173	=173	=173	=173	=173	=173	=173
0r	.	0r	.	0c	.	1g]	.
.	.	.	.	.	.	1e	.
=174.	=174	=174.	=174	=174.	=174	=174.	=174
0r	.	0r	.	1A	.	1f	.
.	.	.	.	1B-	.	[1d	.
=175	=175	=175	=175	=175	=175	=175	=175
0r	.	0r	.	0G	.	1d]	.
.	.	.	.	.	.	[1dd	.
=176.	=176	=176.	=176	=176.	=176	=176.	=176
0r	.	0r	.	0g	.	1dd]	.
.	.	.	.	.	.	1b	.
=177	=177	=177	=177	=177	=177	=177	=177
0r	.	0r	.	1e	.	1cc	.
.	.	.	.	1f	.	[1dd	.
=178.	=178	=178.	=178	=178.	=178	=178.	=178
0r	.	0r	.	1.g	.	2dd\]	.
.	.	.	.	.	.	2b\	.
.	.	.	.	.	.	[1b	.
.	.	.	.	2e\	.	.	.
=179	=179	=179	=179	=179	=179	=179	=179
0r	.	0r	.	1.e	.	2b\]	.
.	.	.	.	.	.	2g/	.
.	.	.	.	.	.	1g	.
.	.	.	.	2c\	.	.	.
=180.	=180	=180.	=180	=180.	=180	=180.	=180
0r	.	0r	.	1c	.	1a	.
.	.	.	.	1d	.	1b	.
=181	=181	=181	=181	=181	=181	=181	=181
0r	.	0r	.	1e	.	0g	.
.	.	.	.	[1c	.	.	.
=182.	=182	=182.	=182	=182.	=182	=182.	=182
0r	.	0r	.	1c]	.	1cc	.
.	.	.	.	1f	.	1dd	.
=183	=183	=183	=183	=183	=183	=183	=183
0r	.	0r	.	1g	.	1b	.
.	.	.	.	1e	.	1g	.
=184.	=184	=184.	=184	=184.	=184	=184.	=184
0r	.	0r	.	1c	.	1a	.
.	.	.	.	1d	.	1f	.
=185	=185	=185	=185	=185	=185	=185	=185
0r	.	0r	.	1B-	.	0d	.
.	.	.	.	[1G	.	.	.
=186.	=186	=186.	=186	=186.	=186	=186.	=186
0r	.	0r	.	1G]	.	1g	.
.	.	.	.	1c	.	1e	.
=187	=187	=187	=187	=187	=187	=187	=187
0r	.	0r	.	1A	.	0f	.
.	.	.	.	[1B-	.	.	.
=188.	=188	=188.	=188	=188.	=188	=188.	=188
0r	.	0r	.	1B-]	.	1g	.
.	.	.	.	1c	.	[1a	.
=189	=189	=189	=189	=189	=189	=189	=189
0r	.	0r	.	0d	.	1a]	.
.	.	.	.	.	.	1b	.
=190.	=190	=190.	=190	=190.	=190	=190.	=190
0r	.	0r	.	0c	.	1cc	.
.	.	.	.	.	.	[1a	.
=191	=191	=191	=191	=191	=191	=191	=191
0r	.	0r	.	1G	.	2a/]	.
.	.	.	.	.	.	2g/	.
.	.	.	.	1B-	.	[1g	.
=192.	=192	=192.	=192	=192.	=192	=192.	=192
0r	.	0r	.	0A	.	1g]	.
.	.	.	.	.	.	1f#i	.
=193	=193	=193	=193	=193	=193	=193	=193
0r	.	0r	.	[0G	.	0g	.
=194.	=194	=194.	=194	=194.	=194	=194.	=194
0r	.	0r	.	0G]	.	0r	.
=195	=195	=195	=195	=195	=195	=195	=195
0r	.	0r	.	1r	.	0a	-ra-
.	.	.	.	[1d	-ra-	.	.
=196.	=196	=196.	=196	=196.	=196	=196.	=196
0r	.	0r	.	1d]	.	1f	-ti-
.	.	.	.	1e	-ti-	1g	.
=197	=197	=197	=197	=197	=197	=197	=197
0r	.	[0d	Ter-	0f	-o-	0a	-o-
=198.	=198	=198.	=198	=198.	=198	=198.	=198
0G	Ter-	0d_	.	0g	-ne	1g	-ne
.	.	.	.	.	.	[1dd	tu-
=199	=199	=199	=199	=199	=199	=199	=199
0r	.	0d_	.	[0f	tu-	1dd]	.
.	.	.	.	.	.	1cc	.
=200.	=200	=200.	=200	=200.	=200	=200.	=200
0r	.	0d]	.	0f]	.	1.a	.
.	.	.	.	.	.	2g/	.
=201	=201	=201	=201	=201	=201	=201	=201
0G	-ri-	0r	.	1.d	-a	0g\ 0b	-a
.	.	.	.	2c\	.	.	.
=202.	=202	=202.	=202	=202.	=202	=202.	=202
0F	-bi-	0r	.	[0A	.	1r	.
.	.	.	.	.	.	[1a	Cru-
=203	=203	=203	=203	=203	=203	=203	=203
[0D	-lis	[0d	-ri-	0A]	.	1a]	.
.	.	.	.	.	.	1f	-ci-
=204.	=204	=204.	=204	=204.	=204	=204.	=204
0D]	.	0d]	.	0A	Cru-	1a	-a-
.	.	.	.	.	.	1g	.
=205	=205	=205	=205	=205	=205	=205	=205
0r	.	0c	-bi-	0A	-ci-	0e	-tus
=206.	=206	=206.	=206	=206.	=206	=206.	=206
0D	est	0A	-lis	0d	-a-	1d	et
.	.	.	.	.	.	[1a	me-
=207	=207	=207	=207	=207	=207	=207	=207
[0F	.	0r	.	0c	-tus	1a]	.
.	.	.	.	.	.	1b	.
=208.	=208	=208.	=208	=208.	=208	=208.	=208
0F]	.	0r	.	0A	et	1cc	.
.	.	.	.	.	.	[1a	.
=209	=209	=209	=209	=209	=209	=209	=209
0r	.	0A	est	1F	me-	1a]	.
.	.	.	.	1G	.	1dd	.
=210.	=210	=210.	=210	=210.	=210	=210.	=210
0r	.	0c	.	0A	-ri-	1cc	.
.	.	.	.	.	.	1a	-ri-
=211	=211	=211	=211	=211	=211	=211	=211
0r	.	[0d	.	0G	-tis	0b	-tis
=212.	=212	=212.	=212	=212.	=212	=212.	=212
[0G	.	0d_	.	0r	.	0g	.
=213	=213	=213	=213	=213	=213	=213	=213
0G]	.	0d]	.	1.g	Tu-	0r	.
.	.	.	.	2f\	.	.	.
=214.	=214	=214.	=214	=214.	=214	=214.	=214
0B-	lo-	0r	.	0d	-i	0f	Tu-
=215	=215	=215	=215	=215	=215	=215	=215
0r	.	0f	lo-	0B-\ 0d	se-	0b-	.
=216.	=216	=216.	=216	=216.	=216	=216.	=216
0r	.	0f	-cus	0F\ 0c	.	0a	-i
=217	=217	=217	=217	=217	=217	=217	=217
[0B-	-cus	0r	.	0G\ 0g	-cun-	0d	.
=218.	=218	=218.	=218	=218.	=218	=218.	=218
0B-]	.	0f	i-	0d	.	1r	.
.	.	.	.	.	.	[1dd	se-
=219	=219	=219	=219	=219	=219	=219	=219
0r	.	0g	.	0G\ 0d	-dum	1dd]	.
.	.	.	.	.	.	1cc	.
=220.	=220	=220.	=220	=220.	=220	=220.	=220
0B-	i-	0f	.	1r	.	0b-i	-cun-
.	.	.	.	1d	car-	.	.
=221	=221	=221	=221	=221	=221	=221	=221
0c	.	0e	-ste:	1c	.	0a	-dum
.	.	.	.	1A	.	.	.
=222.	=222	=222.	=222	=222.	=222	=222.	=222
0B-	.	0d	.	1B-	.	0g	.
.	.	.	.	1G	.	.	.
=223	=223	=223	=223	=223	=223	=223	=223
0A	-ste:	0r	.	0c	.	1.f#	car-
.	.	.	.	.	.	2e/	.
=224.	=224	=224.	=224	=224.	=224	=224.	=224
0G	.	0r	.	0d	-nem	1g	-nem
.	.	.	.	.	.	1r	.
=225	=225	=225	=225	=225	=225	=225	=225
*M3/1	*	*M3/1	*	*M3/1	*	*M3/1	*
*met(O|)	*	*met(O|)	*	*met(O|)	*	*met(O|)	*
0.r	.	0.r	.	0g	Na-	0b	Na-
.	.	.	.	1e	.	1cc	.
=226.	=226	=226.	=226	=226.	=226	=226.	=226
0.r	.	0.r	.	1f	.	1dd	.
.	.	.	.	0g	.	1.b	.
.	.	.	.	.	.	2g/	.
=227	=227	=227	=227	=227	=227	=227	=227
0.r	.	0.r	.	1e	.	0g	.
.	.	.	.	0c	.	.	.
.	.	.	.	.	.	1e	.
=228.	=228	=228.	=228	=228.	=228	=228.	=228
0.r	.	0.r	.	0d	.	1f	.
.	.	.	.	.	.	1.b-i	.
.	.	.	.	[1c	.	.	.
.	.	.	.	.	.	2a/	.
=229	=229	=229	=229	=229	=229	=229	=229
0.r	.	0.r	.	1c]	.	1a	.
.	.	.	.	0B-	.	1.g	.
.	.	.	.	.	.	2f/	.
=230.	=230	=230.	=230	=230.	=230	=230.	=230
0.r	.	0.r	.	0.A	-ti	0.a	-ti
=231	=231	=231	=231	=231	=231	=231	=231
0.r	.	0.r	.	0c	do-	1r	.
.	.	.	.	.	.	0e	do-
.	.	.	.	1c	-mi-	.	.
=232.	=232	=232.	=232	=232.	=232	=232.	=232
0.r	.	0.r	.	[0.d	-ni	1d	-mi-
.	.	.	.	.	.	1.f	-ni
.	.	.	.	.	.	2g/	.
=233	=233	=233	=233	=233	=233	=233	=233
0.r	.	0.r	.	1d]	.	1.a	.
.	.	.	.	0c	su-	.	.
.	.	.	.	.	.	2g/	.
.	.	.	.	.	.	1cc	su-
=234.	=234	=234.	=234	=234.	=234	=234.	=234
0.r	.	0.r	.	1G	.	1b	.
.	.	.	.	1F	.	1.a	.
.	.	.	.	1G	.	.	.
.	.	.	.	.	.	2g/	.
=235	=235	=235	=235	=235	=235	=235	=235
0.r	.	0.r	.	1B-	.	0g	.
.	.	.	.	0A	.	.	.
.	.	.	.	.	.	1f#i	.
=236.	=236	=236.	=236	=236.	=236	=236.	=236
0.r	.	0.r	.	[0.G	-i	0.g	-i
=237	=237	=237	=237	=237	=237	=237	=237
0.r	.	0.r	.	0.G]	.	0.r	.
=238.	=238	=238.	=238	=238.	=238	=238.	=238
0.r	.	0.r	.	[0.D\ [0.d	.	1a	.
.	.	.	.	.	.	2b\	.
.	.	.	.	.	.	1dd	.
.	.	.	.	.	.	2cc\	.
=239	=239	=239	=239	=239	=239	=239	=239
0.r	.	0.r	.	0.D]\ 0.d]	.	1b	.
.	.	.	.	.	.	1a	.
.	.	.	.	.	.	2g/	.
.	.	.	.	.	.	2f/	.
=240.	=240	=240.	=240	=240.	=240	=240.	=240
0.r	.	0.r	.	0.A\ 0.c	.	1e	.
.	.	.	.	.	.	1.a	.
.	.	.	.	.	.	2g/	.
=241	=241	=241	=241	=241	=241	=241	=241
0.r	.	0.r	.	0.B-\ 0.d	.	1g	.
.	.	.	.	.	.	1f	.
.	.	.	.	.	.	2e/	.
.	.	.	.	.	.	2d/	.
=242.	=242	=242.	=242	=242.	=242	=242.	=242
0.r	.	0.r	.	0.A\ 0.e	.	0.c	.
=243	=243	=243	=243	=243	=243	=243	=243
0.r	.	0.r	.	0.A\ 0.c	.	1r	.
.	.	.	.	.	.	1e	.
.	.	.	.	.	.	2f/	.
.	.	.	.	.	.	2g/	.
=244.	=244	=244.	=244	=244.	=244	=244.	=244
0.r	.	0.r	.	0D\ 0d	.	1b-i	.
.	.	.	.	.	.	1a	.
.	.	.	.	1D\ 1A	.	[1f	.
=245	=245	=245	=245	=245	=245	=245	=245
0.r	.	0.r	.	1D\ 1B-	.	1f]	.
.	.	.	.	0A\ 0c	.	1.e	.
.	.	.	.	.	.	2d/	.
=246.	=246	=246.	=246	=246.	=246	=246.	=246
0.r	.	0.r	.	[0.D\ [0.d	.	0.d	.
=247	=247	=247	=247	=247	=247	=247	=247
0.r	.	0.r	.	0.D]\ 0.d]	.	1r	.
.	.	.	.	.	.	1r	.
.	.	.	.	.	.	1a	.
=248.	=248	=248.	=248	=248.	=248	=248.	=248
0.r	.	0.r	.	0c\ 0e	.	1g	.
.	.	.	.	.	.	1.cc	.
.	.	.	.	1A\ 1f	.	.	.
.	.	.	.	.	.	2a/	.
=249	=249	=249	=249	=249	=249	=249	=249
0.r	.	0.r	.	0G\ 0g	.	1b	.
.	.	.	.	.	.	2dd\	.
.	.	.	.	.	.	2cc\	.
.	.	.	.	1d\ 1f	.	1a	.
=250.	=250	=250.	=250	=250.	=250	=250.	=250
0.r	.	0.r	.	1A\ 1e	.	1r	.
.	.	.	.	0B-\ 0d	.	1f	.
.	.	.	.	.	.	1b-	.
=251	=251	=251	=251	=251	=251	=251	=251
0.r	.	0.r	.	1F\ 1c	.	1a	.
.	.	.	.	0G\ 0B-	.	1.d	.
.	.	.	.	.	.	2e/	.
=252.	=252	=252.	=252	=252.	=252	=252.	=252
0.r	.	0.r	.	0.D\ 0.A	.	1g	.
.	.	.	.	.	.	0f#i	.
=253	=253	=253	=253	=253	=253	=253	=253
0.r	.	[0.d	Ter-	0.D\ 0.A	.	1r	.
.	.	.	.	.	.	1.a	Gra-
.	.	.	.	.	.	2g/	.
=254.	=254	=254.	=254	=254.	=254	=254.	=254
0.G	Ter-	0.d_	.	0.r	.	1.g	.
.	.	.	.	.	.	2f/	.
.	.	.	.	.	.	2d/	.
.	.	.	.	.	.	2e/	.
=255	=255	=255	=255	=255	=255	=255	=255
0.r	.	0.d_	.	0.D\ 0.A	Gra-	1f	.
.	.	.	.	.	.	2g/	.
.	.	.	.	.	.	1a	.
.	.	.	.	.	.	2b-i\	.
=256.	=256	=256.	=256	=256.	=256	=256.	=256
0.r	.	0.d]	.	0.D\ 0.A	-ta	2a/	.
.	.	.	.	.	.	1f#i	.
.	.	.	.	.	.	2g/	.
.	.	.	.	.	.	2f#i/	.
.	.	.	.	.	.	2e/	.
=257	=257	=257	=257	=257	=257	=257	=257
0.G	-ri-	0.r	.	0.B-\ 0.d	be-	0g	-ta
.	.	.	.	.	.	1r	.
=258.	=258	=258.	=258	=258.	=258	=258.	=258
0.F	-bi-	0.r	.	0.A\ 0.c	-ne-	0a	be-
.	.	.	.	.	.	1a	-ne-
=259	=259	=259	=259	=259	=259	=259	=259
[0.D	-lis	[0.d	-ri-	0F\ 0A	-fi-	1a	-fi-
.	.	.	.	.	.	1.f	-ci-
.	.	.	.	1A	-ci-	.	.
.	.	.	.	.	.	2d/	.
=260.	=260	=260.	=260	=260.	=260	=260.	=260
0.D]	.	0.d]	.	1B-	-a	1d	-a
.	.	.	.	[0A	.	1f	.
.	.	.	.	.	.	2g/	.
.	.	.	.	.	.	[2a/	.
=261	=261	=261	=261	=261	=261	=261	=261
0.r	.	0.c	-bi-	0.A]	.	2a/]	.
.	.	.	.	.	.	2g/	.
.	.	.	.	.	.	1.e	.
.	.	.	.	.	.	2d/	.
=262.	=262	=262.	=262	=262.	=262	=262.	=262
0.D	est	0.A	-lis	1r	.	1d	.
.	.	.	.	0d	.	1r	.
.	.	.	.	.	.	[1a	.
=263	=263	=263	=263	=263	=263	=263	=263
[0.F	.	0.r	.	1c	.	2a/]	.
.	.	.	.	.	.	2b\	.
.	.	.	.	1.f	.	2cc\	.
.	.	.	.	.	.	2dd\	.
.	.	.	.	.	.	2cc\	.
.	.	.	.	2e\	.	2a/	.
=264.	=264	=264.	=264	=264.	=264	=264.	=264
0.F]	.	0.r	.	1d	.	2b\	.
.	.	.	.	.	.	1a	.
.	.	.	.	1c	.	.	.
.	.	.	.	.	.	2g/	.
.	.	.	.	1A	.	2a/	.
.	.	.	.	.	.	2f/	.
=265	=265	=265	=265	=265	=265	=265	=265
0.r	.	0.A	est	1r	.	1e	.
.	.	.	.	0A	.	1.a	.
.	.	.	.	.	.	2g/	.
=266.	=266	=266.	=266	=266.	=266	=266.	=266
0.r	.	0.c	.	1G	.	1g	.
.	.	.	.	0A	.	2r	.
.	.	.	.	.	.	1cc	.
.	.	.	.	.	.	2a/	.
=267	=267	=267	=267	=267	=267	=267	=267
0.r	.	[0.d	.	0.G	.	1cc	.
.	.	.	.	.	.	1b	.
.	.	.	.	.	.	1r	.
=268.	=268	=268.	=268	=268.	=268	=268.	=268
[0.G	.	0.d_	.	0.r	.	0g	Ve-
.	.	.	.	.	.	1g	-ni-
=269	=269	=269	=269	=269	=269	=269	=269
0.G]	.	0.d]	.	0g	Ve-	1d	-am-
.	.	.	.	.	.	1.b-i	.
.	.	.	.	1g	-ni-	.	.
.	.	.	.	.	.	2a/	.
=270.	=270	=270.	=270	=270.	=270	=270.	=270
0.B-	lo-	0.r	.	0d	-am-	1g	.
.	.	.	.	.	.	0f	-que
.	.	.	.	1d	-que	.	.
=271	=271	=271	=271	=271	=271	=271	=271
0.r	.	0.f	lo-	1B-\ 1d	re-	1b-i	re-
.	.	.	.	0B-\ 0d	-a-	0b-i	-a-
=272.	=272	=272.	=272	=272.	=272	=272.	=272
0.r	.	0.f	-cus	0.F\ 0.c	-tum	1.a	-tum
.	.	.	.	.	.	2f/	.
.	.	.	.	.	.	2g/	.
.	.	.	.	.	.	2f/	.
=273	=273	=273	=273	=273	=273	=273	=273
[0.B-	-cus	0.r	.	0.G\ 0.g	Ac-	0.d	.
=274.	=274	=274.	=274	=274.	=274	=274.	=274
0.B-]	.	0.f	i-	0d	-ci-	1r	.
.	.	.	.	.	.	1r	.
.	.	.	.	1d	-pe-	1dd	Ac-
=275	=275	=275	=275	=275	=275	=275	=275
0.r	.	0.g	.	1c	-re	1ee	-ci-
.	.	.	.	0G\ 0d	.	0dd	.
=276.	=276	=276.	=276	=276.	=276	=276.	=276
0.B-	i-	0.f	.	1r	.	1.dd	-pe-
.	.	.	.	0d	me-	.	.
.	.	.	.	.	.	2cc\	.
.	.	.	.	.	.	1b-i	.
=277	=277	=277	=277	=277	=277	=277	=277
0.c	.	0.e	-ste:	1c	-re-	1a	-re
.	.	.	.	0A	.	1r	.
.	.	.	.	.	.	2cc\	me-
.	.	.	.	.	.	2b\	.
=278.	=278	=278.	=278	=278.	=278	=278.	=278
0.B-	.	0.d	.	1r	.	1.g	-re-
.	.	.	.	0G	-a-	.	.
.	.	.	.	.	.	2f/	.
.	.	.	.	.	.	2d/	.
.	.	.	.	.	.	[2g/	-a-
=279	=279	=279	=279	=279	=279	=279	=279
0.A	-ste:	0.r	.	0.D\ 0.d	.	2g/]	.
.	.	.	.	.	.	2f/	.
.	.	.	.	.	.	2g/	.
.	.	.	.	.	.	2a/	.
.	.	.	.	.	.	2.f#i/	.
.	.	.	.	.	.	4e/	.
=280.	=280	=280.	=280	=280.	=280	=280.	=280
0.G	.	0.r	.	0d	-tur.	0g	-tur.
.	.	.	.	1r	.	1r	.
=281	=281	=281	=281	=281	=281	=281	=281
0B-	A-	0d	A-	0G	A-	0g	A-
1A	.	1d	.	1D	.	1f	.
=282.	=282	=282.	=282	=282.	=282	=282.	=282
1B-	.	1e	.	1G	.	1g	.
1.c	.	1.f	.	0F	.	1.a	.
2B-\	.	2e\	.	.	.	2g/	.
=283	=283	=283	=283	=283	=283	=283	=283
1G	.	0.d;	.	1G	.	1g	.
0A;	.	.	.	0D;	.	0f#i;	.
=284.	=284	=284.	=284	=284.	=284	=284.	=284
0.Gl	-men.	0B-	-men.	0.dl	-men.	0.gl	-men.
.	.	1dl	.	.	.	.	.
*rscale:1	*	*rscale:1	*	*	*	*	*
==	==	==	==	==	==	==	==
*-	*-	*-	*-	*-	*-	*-	*-
!!!RDF**kern: l=long note in original notation
!!!RDF**kern: i=editorial accidental
!!!ENC:	Jesse Rodin
!!!END:	2014/08/06/
!!!EED:	Jesse Rodin
!!!EEV:	2014/08/16/
!!!ONB:	Translated from SCORE and edited on 2014/08/16/ by Craig Sapp
!!muse2ps: C^@{COM}^i2I150v90,90,90,130c160z18
!!muse2ps-z14: C^@{COM}^i2I150v85,85,85,130c160
